src/assets/duotone/VolumeHigh.svg

<svg width="24" height="24" viewBox="0 0 24 24"  xmlns="http://www.w3.org/2000/svg">
<path d="M17.9998 16.75C17.8398 16.75 17.6898 16.7 17.5498 16.6C17.2198 16.35 17.1498 15.88 17.3998 15.55C18.9698 13.46 18.9698 10.54 17.3998 8.45003C17.1498 8.12003 17.2198 7.65003 17.5498 7.40003C17.8798 7.15003 18.3498 7.22003 18.5998 7.55003C20.5598 10.17 20.5598 13.83 18.5998 16.45C18.4498 16.65 18.2298 16.75 17.9998 16.75Z" />
<path d="M19.8299 19.25C19.6699 19.25 19.5199 19.2 19.3799 19.1C19.0499 18.85 18.9799 18.38 19.2299 18.05C21.8999 14.49 21.8999 9.51003 19.2299 5.95003C18.9799 5.62003 19.0499 5.15003 19.3799 4.90003C19.7099 4.65003 20.1799 4.72003 20.4299 5.05003C23.4999 9.14003 23.4999 14.86 20.4299 18.95C20.2899 19.15 20.0599 19.25 19.8299 19.25Z" />
<path opacity="0.4" d="M15.75 7.40997V16.59C15.75 18.31 15.13 19.6 14.02 20.22C13.57 20.47 13.07 20.59 12.55 20.59C11.75 20.59 10.89 20.32 10.01 19.77L7.09 17.94C6.89 17.82 6.66 17.75 6.43 17.75H5.5V6.24997H6.43C6.66 6.24997 6.89 6.17997 7.09 6.05997L10.01 4.22997C11.47 3.31997 12.9 3.15997 14.02 3.77997C15.13 4.39997 15.75 5.68997 15.75 7.40997Z" />
<path d="M5.5 6.25V17.75H5C2.58 17.75 1.25 16.42 1.25 14V10C1.25 7.58 2.58 6.25 5 6.25H5.5Z" />
</svg>

<?xml version="1.0" encoding="UTF-8"?>
<svg width="24" height="24" viewBox="0 0 24 24" xmlns="http://www.w3.org/2000/svg">
 <path d="m18 16.75c-0.16 0-0.31-0.05-0.45-0.15-0.33-0.25-0.4-0.72-0.15-1.05 1.57-2.09 1.57-5.01 0-7.1-0.25-0.33-0.18-0.8 0.15-1.05s0.8-0.18 1.05 0.15c1.96 2.62 1.96 6.28 0 8.9-0.15 0.2-0.37 0.3-0.6 0.3z"/>
 <path d="m19.83 19.25c-0.16 0-0.31-0.05-0.45-0.15-0.33-0.25-0.4-0.72-0.15-1.05 2.67-3.56 2.67-8.54 0-12.1-0.25-0.33-0.18-0.8 0.15-1.05s0.8-0.18 1.05 0.15c3.07 4.09 3.07 9.81 0 13.9-0.14 0.2-0.37 0.3-0.6 0.3z"/>
 <path d="m15.75 7.41v9.18c0 1.72-0.62 3.01-1.73 3.63-0.45 0.25-0.95 0.37-1.47 0.37-0.8 0-1.66-0.27-2.54-0.82l-2.92-1.83c-0.2-0.12-0.43-0.19-0.66-0.19h-0.93v-11.5h0.93c0.23 0 0.46-0.07 0.66-0.19l2.92-1.83c1.46-0.91 2.89-1.07 4.01-0.45 1.11 0.62 1.73 1.91 1.73 3.63z" opacity=".4"/>
 <path d="m5.5 6.25v11.5h-0.5c-2.42 0-3.75-1.33-3.75-3.75v-4c0-2.42 1.33-3.75 3.75-3.75h0.5z"/>
</svg>
